X: 3
T: Sean Hayes'
R: barndance
M: 4/4
L: 1/8
K: Dmaj
F2 F2 GFGB|A2 d2 dcBA|F2 F2 GFGF|E6 DE|
F2 F2 GFGB|A2 d2 f3e|dAFA BGEC|D2 D2 D2:|
(3Bcd|:e2 d2 F3d|c2B2 E3D|CDEF GABd|edcB A2 (3Bcd|
e2 d2 F3d|c2 B2 E3D|CDEF GABc|d2 d2 d2:|

